X:318
T:The Haymakers
C:Neal, c.1726
N:The tune is "Highland Lilt".
M:2/2
S:Colin Hume's website,  colinhume.com  - chords can also be printed below the stave.
Q:1/2=120
M:2/2
L:1/4
K:G
P:A
|:e | "Am"A/A/A eA | "C"c3/d/ ef | "G"gddg | "Em"G/G/GdB |\
"Am"A/A/AeA | "C"c3/d/ef | "G"gd "Em"gB |1 "Am"A3 :|2 "Am"A4 |
P:B
|: "Am"A/A/Aa2 | "C"g3/f/ef | "G"gdeg | "Em"G/G/GdB |\
"Am"A/A/Aa2 | "C"g3/f/ef | "G"gd "Em"gB | "Am"A/A/AAz :|

